svgs/1F469-1F3FC-200D-1F4BC.svg

<svg xmlns="http://www.w3.org/2000/svg" xmlns:xlink="http://www.w3.org/1999/xlink" preserveAspectRatio="none" viewBox="0 0 72 72"><defs><path id="a" fill="#BFA055" d="M105.5 69.2q.6-13.7.6-24.1l-84 .35q0 11.45.8 25.7 1.65 28.5 5.7 42.45l72.6-.3q3.05-16.7 4.3-44.1z"/><path id="b" fill="#607D8B" d="M34.2 100.75q-13.8 6.15-13.8 17.4V128h87.15v-9.85q0-10.8-13.45-17.15-12.15-5.75-29.8-5.7-18.05.05-30.1 5.45z"/><path id="c" fill="#D8D8D8" d="M53.9 95.85l-4 .5L56.25 128h8.15V95.3q-5.4 0-10.5.55z"/><path id="d" fill="#D8D8D8" d="M78.1 96.35Q72.4 95.3 64 95.3V128h7.65l6.45-31.65z"/><path id="e" fill="#BFA055" d="M106.1 46.15q0-16.35-12.3-27.9-12.3-11.6-29.7-11.6t-29.7 11.6Q22.1 29.8 22.1 46.15q0 16.35 12.3 27.95 12.3 11.55 29.7 11.55T93.8 74.1q12.3-11.6 12.3-27.95z"/><path id="f" fill="#C48E6A" d="M35.35 59.9l2.05-.1q3.75 0 3.75-3.6v-5.4h-10.2v5.4q0 1.75 1.25 2.75 1.15.95 3.15.95z"/><path id="g" fill="#FFF" d="M78.25 96.35l-5.1-.65q0 1.2-.9 3.05-1 2-2.5 3.75-2.1 2.45-5.65 3.95l10.4 11.1 3.75-21.2z"/><path id="h" fill="#E0BB95" d="M47.15 48.5q6.1-5.25 6.1-15.3 0-12.3-3.5-18.4Q45.6 7.65 36 7.65q-9.65 0-13.8 7.15-3.5 6.1-3.5 18.4 0 10.05 6.15 15.3 4.8 4.15 11.15 4.15 6.3 0 11.15-4.15z"/><path id="i" fill="#513F35" d="M54.85 78.15q-.8 0-1.05.5t.25 1.3q.95 1.45 3.35 2.7 3.05 1.65 6.7 1.65 3.6 0 6.65-1.65 2.4-1.25 3.35-2.7.5-.8.25-1.3t-1.05-.5H54.85z"/><path id="j" fill="#444" d="M53.6 60.75q0-2.1-1.25-3.6-1.25-1.55-3.05-1.55-1.75 0-3 1.55-1.25 1.5-1.25 3.6 0 2.15 1.25 3.7 1.25 1.5 3 1.5 1.8 0 3.05-1.55 1.25-1.5 1.25-3.65z"/><path id="k" fill="#444" d="M83.1 60.75q0-2.1-1.25-3.6-1.25-1.55-3-1.55t-3.05 1.55q-1.25 1.5-1.25 3.6 0 2.15 1.25 3.65 1.3 1.55 3.05 1.55 1.75 0 3-1.5 1.25-1.55 1.25-3.7z"/><path id="l" fill="#E49500" d="M69.15 70.5q-.2-.35-.65-.2-2.5.7-4.45.7-2 0-4.5-.7-.45-.15-.65.2t0 .7q.5.85 1.75 1.65 1.65 1 3.4 1t3.4-1q1.25-.8 1.75-1.65.15-.35-.05-.7z"/><path id="m" fill="#BFA055" d="M96.7 26.65q-2.4-4.85-7.65-9.7Q78.55 7.2 64.2 7.2q-14.3 0-24.8 9.5-5.25 4.7-7.65 9.45v29.7q14.1-2.4 27.75-10.95 7.85-4.85 13.65-10.4.2-.2.55-.15.3.05.4.3Q78.8 44.3 88.25 51q4.7 3.35 8.45 4.8V26.65z"/><path id="n" fill="#455A64" d="M70.05 128h7.25l11.5-11.95-4.75-6.6 7.1-4.7-4-6.35q-5.05-1.55-10.7-2.3l-6.4 31.9z"/><path id="o" fill="#FFF" d="M55 95.7l-5.05.65 3.75 21.2 10.35-11.1q-3.5-1.5-5.6-3.95-1.5-1.75-2.5-3.75-.95-1.9-.95-3.05z"/><path id="p" fill="#455A64" d="M51.75 96.1q-3.55.45-7.45 1.35l-3.2.8-4.05 6.45 7.1 4.7-4.75 6.6 11.45 12h7.3l-6.4-31.9z"/><path id="q" fill="#B7B7B7" d="M64.25 113.65q-.7 0-1.15.5-.5.5-.5 1.2t.5 1.15q.5.5 1.15.5.7 0 1.2-.5.5-.45.5-1.15t-.5-1.2q-.5-.5-1.2-.5z"/><path id="r" fill="#B7B7B7" d="M64.25 121.65q-.7 0-1.15.5-.5.5-.5 1.2t.5 1.15q.5.5 1.15.5.7 0 1.2-.5.5-.45.5-1.15t-.5-1.2q-.5-.5-1.2-.5z"/></defs><use transform="scale(.5625)" xlink:href="#a"/><use transform="scale(.5625)" xlink:href="#b"/><use transform="scale(.5625)" xlink:href="#c"/><use transform="scale(.5625)" xlink:href="#d"/><use transform="scale(.5625)" xlink:href="#e"/><use xlink:href="#f"/><use transform="scale(.5625)" xlink:href="#g"/><use xlink:href="#h"/><use transform="scale(.5625)" xlink:href="#i"/><use transform="scale(.56248)" xlink:href="#j"/><use transform="scale(.56248)" xlink:href="#k"/><use transform="scale(.5625)" xlink:href="#l"/><use transform="scale(.5625)" xlink:href="#m"/><use transform="scale(.5625)" xlink:href="#n"/><use transform="scale(.5625)" xlink:href="#o"/><use transform="scale(.5625)" xlink:href="#p"/><use transform="scale(.5625)" xlink:href="#q"/><use transform="scale(.5625)" xlink:href="#r"/></svg>

<svg xmlns="http://www.w3.org/2000/svg" version="1.1" xmlns:xlink="http://www.w3.org/1999/xlink" preserveAspectRatio="none" x="0px" y="0px" width="72px" height="72px" viewBox="0 0 72 72">
<defs>
<g id="Layer0_0_FILL">
<path fill="#BFA055" stroke="none" d="
M 105.5 69.2
Q 106.1 55.5 106.1 45.1
L 22.1 45.45
Q 22.1 56.9 22.9 71.15 24.55 99.65 28.6 113.6
L 101.2 113.3
Q 104.25 96.6 105.5 69.2 Z"/>
</g>

<g id="Layer0_1_FILL">
<path fill="#607D8B" stroke="none" d="
M 34.2 100.75
Q 20.4 106.9 20.4 118.15
L 20.4 128 107.55 128 107.55 118.15
Q 107.55 107.35 94.1 101 81.95 95.25 64.3 95.3 46.25 95.35 34.2 100.75 Z"/>
</g>

<g id="Layer0_2_FILL">
<path fill="#D8D8D8" stroke="none" d="
M 53.9 95.85
L 49.9 96.35 56.25 128 64.4 128 64.4 95.3
Q 59 95.3 53.9 95.85 Z"/>
</g>

<g id="Layer0_3_FILL">
<path fill="#D8D8D8" stroke="none" d="
M 78.1 96.35
Q 72.4 95.3 64 95.3
L 64 128 71.65 128 78.1 96.35 Z"/>
</g>

<g id="Layer0_4_MEMBER_0_FILL">
<path fill="#BFA055" stroke="none" d="
M 106.1 46.15
Q 106.1 29.8 93.8 18.25 81.5 6.65 64.1 6.65 46.7 6.65 34.4 18.25 22.1 29.8 22.1 46.15 22.1 62.5 34.4 74.1 46.7 85.65 64.1 85.65 81.5 85.65 93.8 74.1 106.1 62.5 106.1 46.15 Z"/>
</g>

<g id="Layer0_5_FILL">
<path fill="#E49800" stroke="none" d="
M 73.15 90.3
L 55 90.3 55 99.9
Q 55 103.05 57.2 104.8 59.3 106.45 62.8 106.45
L 66.45 106.3
Q 73.15 106.3 73.15 99.9
L 73.15 90.3 Z"/>
</g>

<g id="Layer0_6_FILL">
<path fill="#FFFFFF" stroke="none" d="
M 78.25 96.35
L 73.15 95.7
Q 73.15 96.9 72.25 98.75 71.25 100.75 69.75 102.5 67.65 104.95 64.1 106.45
L 74.5 117.55 78.25 96.35 Z"/>
</g>

<g id="Layer0_7_FILL">
<path fill="#FBC11B" stroke="none" d="
M 83.8 86.25
Q 94.7 76.85 94.7 59 94.7 37.15 88.45 26.35 81.1 13.6 64 13.6 46.85 13.6 39.5 26.35 33.25 37.15 33.25 59 33.25 76.85 44.2 86.25 52.75 93.6 64 93.6 75.2 93.6 83.8 86.25 Z"/>
</g>

<g id="Layer0_8_FILL">
<path fill="#513F35" stroke="none" d="
M 54.85 78.15
Q 54.05 78.15 53.8 78.65 53.55 79.15 54.05 79.95 55 81.4 57.4 82.65 60.45 84.3 64.1 84.3 67.7 84.3 70.75 82.65 73.15 81.4 74.1 79.95 74.6 79.15 74.35 78.65 74.1 78.15 73.3 78.15
L 54.85 78.15 Z"/>
</g>

<g id="Layer0_9_MEMBER_0_FILL">
<path fill="#444444" stroke="none" d="
M 53.6 60.75
Q 53.6 58.65 52.35 57.15 51.1 55.6 49.3 55.6 47.55 55.6 46.3 57.15 45.05 58.65 45.05 60.75 45.05 62.9 46.3 64.45 47.55 65.95 49.3 65.95 51.1 65.95 52.35 64.4 53.6 62.9 53.6 60.75 Z"/>
</g>

<g id="Layer0_9_MEMBER_1_FILL">
<path fill="#444444" stroke="none" d="
M 83.1 60.75
Q 83.1 58.65 81.85 57.15 80.6 55.6 78.85 55.6 77.1 55.6 75.8 57.15 74.55 58.65 74.55 60.75 74.55 62.9 75.8 64.4 77.1 65.95 78.85 65.95 80.6 65.95 81.85 64.45 83.1 62.9 83.1 60.75 Z"/>
</g>

<g id="Layer0_10_FILL">
<path fill="#E49500" stroke="none" d="
M 69.15 70.5
Q 68.95 70.15 68.5 70.3 66 71 64.05 71 62.05 71 59.55 70.3 59.1 70.15 58.9 70.5 58.7 70.85 58.9 71.2 59.4 72.05 60.65 72.85 62.3 73.85 64.05 73.85 65.8 73.85 67.45 72.85 68.7 72.05 69.2 71.2 69.35 70.85 69.15 70.5 Z"/>
</g>

<g id="Layer0_11_FILL">
<path fill="#BFA055" stroke="none" d="
M 96.7 26.65
Q 94.3 21.8 89.05 16.95 78.55 7.2 64.2 7.2 49.9 7.2 39.4 16.7 34.15 21.4 31.75 26.15
L 31.75 55.85
Q 45.85 53.45 59.5 44.9 67.35 40.05 73.15 34.5 73.35 34.3 73.7 34.35 74 34.4 74.1 34.65 78.8 44.3 88.25 51 92.95 54.35 96.7 55.8
L 96.7 26.65 Z"/>
</g>

<g id="Layer0_12_FILL">
<path fill="#455A64" stroke="none" d="
M 70.05 128
L 77.3 128 88.8 116.05 84.05 109.45 91.15 104.75 87.15 98.4
Q 82.1 96.85 76.45 96.1
L 70.05 128 Z"/>
</g>

<g id="Layer0_13_FILL">
<path fill="#FFFFFF" stroke="none" d="
M 55 95.7
L 49.95 96.35 53.7 117.55 64.05 106.45
Q 60.55 104.95 58.45 102.5 56.95 100.75 55.95 98.75 55 96.85 55 95.7 Z"/>
</g>

<g id="Layer0_14_FILL">
<path fill="#455A64" stroke="none" d="
M 51.75 96.1
Q 48.2 96.55 44.3 97.45
L 41.1 98.25 37.05 104.7 44.15 109.4 39.4 116 50.85 128 58.15 128 51.75 96.1 Z"/>
</g>

<g id="Layer0_15_FILL">
<path fill="#B7B7B7" stroke="none" d="
M 64.25 113.65
Q 63.55 113.65 63.1 114.15 62.6 114.65 62.6 115.35 62.6 116.05 63.1 116.5 63.6 117 64.25 117 64.95 117 65.45 116.5 65.95 116.05 65.95 115.35 65.95 114.65 65.45 114.15 64.95 113.65 64.25 113.65 Z"/>
</g>

<g id="Layer0_16_FILL">
<path fill="#B7B7B7" stroke="none" d="
M 64.25 121.65
Q 63.55 121.65 63.1 122.15 62.6 122.65 62.6 123.35 62.6 124.05 63.1 124.5 63.6 125 64.25 125 64.95 125 65.45 124.5 65.95 124.05 65.95 123.35 65.95 122.65 65.45 122.15 64.95 121.65 64.25 121.65 Z"/>
</g>
</defs>

<g id="Layer_1">
<g transform="matrix( 0.5625, 0, 0, 0.5625, 0,0) ">
<use xlink:href="#Layer0_0_FILL"/>
</g>

<g transform="matrix( 0.5625, 0, 0, 0.5625, 0,0) ">
<use xlink:href="#Layer0_1_FILL"/>
</g>

<g transform="matrix( 0.5625, 0, 0, 0.5625, 0,0) ">
<use xlink:href="#Layer0_2_FILL"/>
</g>

<g transform="matrix( 0.5625, 0, 0, 0.5625, 0,0) ">
<use xlink:href="#Layer0_3_FILL"/>
</g>

<g transform="matrix( 0.5625, 0, 0, 0.5625, 0,0) ">
<use xlink:href="#Layer0_4_MEMBER_0_FILL"/>
</g>

<g transform="matrix( 0.5625, 0, 0, 0.5625, 0,0) ">
<use xlink:href="#Layer0_5_FILL"/>
</g>

<g transform="matrix( 0.5625, 0, 0, 0.5625, 0,0) ">
<use xlink:href="#Layer0_6_FILL"/>
</g>

<g transform="matrix( 0.5625, 0, 0, 0.5625, 0,0) ">
<use xlink:href="#Layer0_7_FILL"/>
</g>

<g transform="matrix( 0.5625, 0, 0, 0.5625, 0,0) ">
<use xlink:href="#Layer0_8_FILL"/>
</g>

<g transform="matrix( 0.5625, 0, 0, 0.5625, 0,0) ">
<use xlink:href="#Layer0_9_MEMBER_0_FILL"/>
</g>

<g transform="matrix( 0.5625, 0, 0, 0.5625, 0,0) ">
<use xlink:href="#Layer0_9_MEMBER_1_FILL"/>
</g>

<g transform="matrix( 0.5625, 0, 0, 0.5625, 0,0) ">
<use xlink:href="#Layer0_10_FILL"/>
</g>

<g transform="matrix( 0.5625, 0, 0, 0.5625, 0,0) ">
<use xlink:href="#Layer0_11_FILL"/>
</g>

<g transform="matrix( 0.5625, 0, 0, 0.5625, 0,0) ">
<use xlink:href="#Layer0_12_FILL"/>
</g>

<g transform="matrix( 0.5625, 0, 0, 0.5625, 0,0) ">
<use xlink:href="#Layer0_13_FILL"/>
</g>

<g transform="matrix( 0.5625, 0, 0, 0.5625, 0,0) ">
<use xlink:href="#Layer0_14_FILL"/>
</g>

<g transform="matrix( 0.5625, 0, 0, 0.5625, 0,0) ">
<use xlink:href="#Layer0_15_FILL"/>
</g>

<g transform="matrix( 0.5625, 0, 0, 0.5625, 0,0) ">
<use xlink:href="#Layer0_16_FILL"/>
</g>
</g>
</svg>
